!!!COM: Felix Mendelssohn
!!!CNT: Deutsch
!!!TXO: Deutsch
!!!OTL: Das erste Veilchen
!!!LYR: Egon Ebert
!!!OPS: Op. 19
!!!ONM: No. 2
!!!ENC: Daniel Alt & Leigh VanHandel
!!!YOR: Sa2mmtliche Lieder fu2r eine Singstimme
!!!YOR: Neu revidirt von Dr. L. Benda, Ausgabe fu2r mittlere Stimme
!!!YOR: Braunschweig. Henry Litolff's Verlag. Boston and New York: Arthur P. Schmidt.
!!!ODT: 1832/
**kern	**silbe
*staff1	*
=1-	=1
*clefG2	*
*k[b-e-a-]	*
*met(C)	*
*M4/4	*
1r	.
=2	=2
2r	.
8r	.
{8b-	{Als
8an	ich
8a-	das
=3	=3
4.g	er-
8g	-ste
8b-	Veil-
8a-	|
8f	-chen
8g	er-
=4	=4
4e-}	-blickt,}
8r	.
{8e-	{wie
4a-	war
8g	ich
8g	von
=5	=5
4cc	Far-
8b-	-ben
8b-	und
[4ee-	Duft
16ee-]	|
16cc	|
16b-	ent-
16an	|
=6	=6
4b-}	-zu2ckt!}
8r	.
{8b-	{Die
8b-	Bo-
8f	|
8g	-tin
8a-	des
=7	=7
4a-	Len-
4g	-zes
4dd-	dru2ckt'
8cc	ich
8bn	voll
=8	=8
[2cc	Lust
8cc]}	|}
{8b-	{an
8g	mei-
8b-	-ne
=9	=9
4b-	schwel-
8a-	-len-
8c	-de,
4e-	hof-
8.f	-fen-
16f	-de
=10	=10
4g}	Burst,}
8r	.
{8e-	{die
4g	Bo-
8f	-tin
8e-	des
=11	=11
4a-	Len-
4an	-zes
4b-	dru2ckt'
8.bn	ich
16b	voll
=12	=12
[2cc	Lust
8cc]	|
8ee-	|
8dd}	|}
{8cc	{an
=13	=13
4cc	mei-
8b-	|
8a-	-ne
8g	schwel-
8b-	|
8a-	-len-
8f	-de,
=14	=14
2e-	hof-
4g	|
8g	-fen-
8f	-de
=15	=15
4e-}	Brust.}
4r	.
2r	.
=16	=16
1r	.
=17	=17
1r	.
=18	=18
*k[b-e-a-d-g-c-]	*
4r	.
8r	.
{8b-	{Der
8b-	Lenz
8f	|
8g-	ist
8a-	vor-
=19	=19
8a-	-u2-
8g-	-ber,
8r	.
8b-	das
8dd-	Veil-
8cc-	|
8b-	-chen
8a-	ist
=20	=20
[1b-	todt,
=21	=21
4b-]	|
8r	.
8b-	das
8dd-	Veil-
8cc-	|
8b-	-chen
8a-	ist
=22	=22
4b-}	todt;}
4r	.
{4dd-	{rings
8cc-	steh'n
8b-	viel
=23	=23
8b-	Blu-
8r	.
8a-	-men,
8r	.
8g-	blau
8r	.
8a-	und
8r	.
=24	=24
4b-}	roth,}
8r	.
{8b-	{ich
4dd-	ste-
8cc-	-he
8b-	in-
=25	=25
8b-	-mit-
8a-	-ten
8r	.
8a-	und
4ee-	se-
8cc-	-he
8b-	sie
=26	=26
4a-	kaum,
8r	.
8a-	ich
8a-	ste-
8a-	-he
8r	.
8a-	in-
=27	=27
8an	-mit-
8a	-ten
8r	.
8a	und
4ee-	se-
8a	-he
16r	.
16a	sie
=28	=28
*k[b-e-a-]	*
[1b-	kaum,
=29	=29
4b-]}	|}
8r	.
{8b-	.
[2ee-	.
=30	=30
4ee-]	.
8dd	.
8cc	.
4cc	.
8b-	.
8a-	.
=31	=31
4.g	.
16f	.
16g	.
8b-	.
8a-	.
8f	.
8g	.
=32	=32
4e-}	.
4r	.
4r	.
{4b-	.
=33	=33
[2b-	.
8b-]	.
8f	.
8g	.
8a-	.
=34	=34
4a-	.
4g}	.
4r	.
{4ee-	.
=35	=35
2.ee-	.
8g	.
8cc	.
=36	=36
8b-	.
8a-	.
8f	.
8g	.
4e-}	.
4r	.
==	==
*-	*-
